X:34
T:Pollu Wolly Doodle
C:Traditional
R:Reel
M:4/4
L:1/8
K:G
|:GAB2B2G2|GAB2B2G2|GAB2B2c2|A8|
A2A2F2F2|A2A2F4|AAAAB2A2|G8:|
